X: 21501
T: GREEN SLEEVES
C:
%R: jig, waltz
B: Elias Howe "The Musician's Companion" 1843 p.150 #1
S: http://imslp.org/wiki/The_Musician's_Companion_(Howe,_Elias)
Z: 2015 John Chambers <jc:trillian.mit.edu>
M: 6/8
L: 1/8
K: C
% - - - - - - - - - - - - - - - - - - - - - - - - -
V: 1
A/B/ |\
c2c cde | dBG GAB | cBA ABc | BGE E2 A/B/ |\
c2c cde | dBG GAB | cBA GE^G | A3 [A2A,2] :|
e/f/ |\
g>ag gfe | dBG GBd | a>ba a>ba | gee e2e |\
g>ag gfe | dBG GAB | cBA GE^G | A3 [A2A,2] :|
% - - - - - - - - - - - - - - - - - - - - - - - - -

%%sep 1 1 500

